assets/images/clients/X5GRPOUPE.svg

<svg width="300" height="120" viewBox="0 0 300 120" fill="none" xmlns="http://www.w3.org/2000/svg">
<g clip-path="url(#clip0_3300_14473)">
<path d="M116.732 71.9131L113.159 65.9174L109.661 71.9131H105.476L110.854 62.8833L105.375 54.5049H109.748L113.26 60.1003L116.606 54.5049H120.791L115.399 63.1599L120.939 71.9131H116.732Z" fill="#949494"/>
<path d="M134.484 65.9032C134.484 69.7231 131.634 72.0879 127.903 72.0879C124.614 72.0879 121.844 70.2689 121.574 66.2669H125.302C125.533 67.9004 126.826 68.6027 128.238 68.6027C129.996 68.6027 130.759 67.4129 130.759 65.8704C130.759 64.2588 129.581 63.2548 127.939 63.2548C127.414 63.2256 126.891 63.3351 126.421 63.5722C125.951 63.8096 125.551 64.1666 125.259 64.608H121.675L122.856 54.4941H134.055L133.695 57.8303H125.666L125.349 61.1628C125.349 61.1628 126.188 60.1624 128.738 60.1624C131.807 60.1624 134.502 62.2433 134.502 65.9141" fill="#949494"/>
<path d="M121.562 52.636C119.678 45.2288 113.71 40.0264 101.326 40.0264H86.3711L88.4026 53.8875C89.9298 66.3987 94.6664 70.4225 103.048 71.9032C103.087 71.9144 103.128 71.9156 103.168 71.9067C103.207 71.898 103.244 71.8794 103.275 71.8526C103.305 71.826 103.329 71.7921 103.344 71.7539C103.358 71.7158 103.363 71.6745 103.358 71.634C103.357 71.5799 103.341 71.5273 103.311 71.4825C103.281 71.4378 103.238 71.4032 103.189 71.383C97.5227 68.9747 96.878 61.0727 95.6677 53.1417L94.7312 46.8223H103.268C111.138 46.8223 117.215 46.6986 121.061 52.8324C121.088 52.8772 121.124 52.9147 121.168 52.9414C121.212 52.9681 121.262 52.9831 121.314 52.9852C121.348 52.9848 121.383 52.9773 121.415 52.9633C121.447 52.9492 121.476 52.9289 121.5 52.9035C121.524 52.8781 121.543 52.8482 121.555 52.8154C121.568 52.7825 121.574 52.7475 121.573 52.7123C121.577 52.687 121.577 52.6613 121.573 52.636" fill="#949494"/>
<path d="M154.915 62.7935C154.915 62.7935 155.808 72.4379 146.126 72.4379C141.015 72.4379 137.078 68.5014 137.078 63.1535C137.078 57.8057 141.04 53.8691 146.277 53.8691C150.319 53.8691 153.535 56.2084 154.764 59.8102H152.462C151.917 58.6181 151.039 57.613 149.936 56.9187C148.832 56.2245 147.552 55.8713 146.252 55.9028C142.229 55.9028 139.25 58.9878 139.25 63.2045C139.25 67.29 142.078 70.4515 146.252 70.4515C149.764 70.4515 152.437 68.1923 152.736 64.6305H145.892V62.8114L154.915 62.7935Z" fill="#949494"/>
<path d="M165.914 57.7548V59.9377C165.616 59.9041 165.317 59.8872 165.017 59.8866C162.06 59.8866 160.007 61.8185 160.007 65.4493V72.0744H157.871V57.9803H159.993V61.1492C160.839 59.0354 162.536 57.7002 165.035 57.7002C165.327 57.7005 165.618 57.7176 165.907 57.7512" fill="#949494"/>
<path d="M181.315 65.0647C181.303 66.5055 180.869 67.9108 180.068 69.1031C179.267 70.2955 178.134 71.2218 176.813 71.7651C175.492 72.3087 174.041 72.4451 172.643 72.1573C171.245 71.8695 169.962 71.1704 168.957 70.1479C167.952 69.1255 167.268 67.8253 166.993 66.4114C166.718 64.9975 166.863 63.5329 167.41 62.2021C167.958 60.8714 168.882 59.7337 170.069 58.933C171.255 58.132 172.649 57.7034 174.076 57.7012C175.035 57.6847 175.988 57.8644 176.877 58.2293C177.766 58.5941 178.573 59.1365 179.249 59.8244C179.925 60.5122 180.457 61.3309 180.812 62.2314C181.167 63.1319 181.338 64.0956 181.315 65.0647ZM169.004 65.0647C169.004 68.179 171.244 70.3944 174.076 70.3944C176.907 70.3944 179.172 68.179 179.172 65.0647C179.172 61.9505 176.903 59.7348 174.076 59.7348C171.248 59.7348 169.004 61.9177 169.004 65.0647Z" fill="#949494"/>
<path d="M195.953 57.9826V72.0766H193.82V69.2825C193.371 70.2341 192.657 71.0323 191.765 71.5791C190.873 72.126 189.842 72.3974 188.799 72.3602C185.676 72.3602 183.807 70.363 183.807 66.9251V57.9826H185.925V66.5612C185.925 69.0824 187.103 70.3959 189.404 70.3959C192.196 70.3959 193.806 68.3875 193.806 65.248V57.9717L195.953 57.9826Z" fill="#949494"/>
<path d="M213.269 65.053C213.269 69.3204 210.493 72.4019 206.634 72.4019C205.534 72.4262 204.447 72.1469 203.491 71.5944C202.536 71.0419 201.747 70.2369 201.209 69.2658V78.5429H199.074V57.9841H201.209V60.8945C201.745 59.9125 202.536 59.0963 203.496 58.5342C204.456 57.972 205.55 57.685 206.659 57.704C210.493 57.704 213.269 60.7636 213.269 65.0566V65.053ZM210.989 65.0566C210.989 61.9678 209.004 59.7268 206.174 59.7268C203.342 59.7268 201.152 61.9424 201.152 65.0566C201.152 68.1708 203.314 70.3865 206.174 70.3865C209.033 70.3865 210.989 68.1708 210.989 65.0566Z" fill="#949494"/>
</g>
<defs>
<clipPath id="clip0_3300_14473">
<rect width="128" height="39" fill="white" transform="translate(86 40)"/>
</clipPath>
</defs>
</svg>

<svg width="300" height="120" viewBox="0 0 300 120" fill="none" xmlns="http://www.w3.org/2000/svg"><g clip-path="url(#a)" fill="#949494"><path d="m116.732 71.913-3.573-5.996-3.498 5.996h-4.185l5.378-9.03-5.479-8.378h4.373l3.512 5.595 3.346-5.595h4.185l-5.392 8.655 5.54 8.753h-4.207Zm17.752-6.01c0 3.82-2.85 6.185-6.581 6.185-3.289 0-6.059-1.82-6.329-5.821h3.728c.231 1.633 1.524 2.336 2.936 2.336 1.758 0 2.521-1.19 2.521-2.733 0-1.611-1.178-2.615-2.82-2.615a3 3 0 0 0-1.518.317c-.47.238-.87.595-1.162 1.036h-3.584l1.181-10.114h11.199l-.36 3.336h-8.029l-.317 3.333s.839-1 3.389-1c3.069 0 5.764 2.08 5.764 5.751"/><path d="M121.562 52.636c-1.884-7.407-7.852-12.61-20.236-12.61H86.371l2.032 13.861c1.527 12.512 6.263 16.535 14.645 18.016a.243.243 0 0 0 .227-.05.259.259 0 0 0 .069-.1.257.257 0 0 0 .014-.119.272.272 0 0 0-.169-.251c-5.666-2.408-6.311-10.31-7.521-18.241l-.937-6.32h8.537c7.87 0 13.947-.123 17.793 6.01a.304.304 0 0 0 .253.153.262.262 0 0 0 .259-.273.244.244 0 0 0 0-.076m33.342 10.158s.893 9.644-8.789 9.644c-5.111 0-9.048-3.937-9.048-9.285 0-5.347 3.962-9.284 9.199-9.284 4.042 0 7.258 2.34 8.487 5.941h-2.302a6.712 6.712 0 0 0-2.526-2.891 6.617 6.617 0 0 0-3.684-1.016c-4.023 0-7.002 3.085-7.002 7.302 0 4.085 2.828 7.246 7.002 7.246 3.512 0 6.185-2.259 6.484-5.82h-6.844v-1.82l9.023-.017Zm10.999-5.039v2.183a8.145 8.145 0 0 0-.897-.051c-2.957 0-5.01 1.931-5.01 5.562v6.625h-2.136V57.98h2.122v3.17c.846-2.115 2.543-3.45 5.042-3.45.292 0 .583.018.872.051m15.408 7.314a7.354 7.354 0 0 1-1.247 4.038 7.243 7.243 0 0 1-3.255 2.662 7.16 7.16 0 0 1-4.17.392 7.207 7.207 0 0 1-3.686-2.01 7.326 7.326 0 0 1-1.964-3.736 7.374 7.374 0 0 1 .417-4.209 7.286 7.286 0 0 1 2.659-3.269 7.177 7.177 0 0 1 4.007-1.232 7.057 7.057 0 0 1 2.801.528 7.11 7.11 0 0 1 2.372 1.595 7.202 7.202 0 0 1 1.563 2.407c.355.9.526 1.865.503 2.834Zm-12.311 0c0 3.114 2.24 5.33 5.072 5.33 2.831 0 5.096-2.216 5.096-5.33s-2.269-5.33-5.096-5.33c-2.828 0-5.072 2.183-5.072 5.33Zm26.949-7.082v14.094h-2.133v-2.794a5.388 5.388 0 0 1-2.055 2.296 5.31 5.31 0 0 1-2.966.781c-3.123 0-4.992-1.997-4.992-5.435v-8.942h2.118v8.578c0 2.521 1.178 3.835 3.479 3.835 2.792 0 4.402-2.008 4.402-5.148v-7.276l2.147.01Zm17.316 7.07c0 4.267-2.776 7.349-6.635 7.349a6.016 6.016 0 0 1-3.143-.808 6.108 6.108 0 0 1-2.282-2.328v9.277h-2.135V57.984h2.135v2.91a6.146 6.146 0 0 1 2.287-2.36 6.054 6.054 0 0 1 3.163-.83c3.834 0 6.61 3.06 6.61 7.353v-.004Zm-2.28.004c0-3.09-1.985-5.33-4.815-5.33-2.832 0-5.022 2.215-5.022 5.33 0 3.114 2.162 5.33 5.022 5.33 2.859 0 4.815-2.216 4.815-5.33Z"/></g><defs><clipPath id="a"><path fill="#fff" transform="translate(86 40)" d="M0 0h128v39H0z"/></clipPath></defs></svg>
